X:1
T:(unknown title)
M:6/8
L:1/8
K:G
 z4 z d/2d/2| dcA G=FD| GGG Acc| de=f AGF| AGG G z d/2d/2| dcA G=FG|\
 GGG Acc| de=f AGA| BAG G2 c| ddd =fdd| ggg dcc| ddd =fe d/2d/2| g=fe d2 d|\
 dcAG-=F D| GGG Acc| de=f AGA| BAG G2 z|

